X:1
T:[ID 9-11a]
T:[ID 9-11a]
T:Bezeichnung standardisiert: Quadrille Quadrille
T:Urheber unbekannt Datum in der hier transkribierten schriftlichen Quelle: 1796
C:Urheber unbekannt
C:Datum in der hier transkribierten schriftlichen Quelle: 1796
L:1/8
M:3/8
K:D
V:1 treble 
V:1
 f2 a | f2 a | gfg | f2 d | f2 a | d2 f | ede | d3 :: e2 e | e2 a | agf | f2 d | f2 a | d2 f | %14
 ede | d3 :| %16

